src/gen3-ui-component/images/icons/planet.svg

<?xml version="1.0" encoding="UTF-8"?>
<svg width="12px" height="12px" viewBox="0 0 12 12" version="1.1" xmlns="http://www.w3.org/2000/svg" xmlns:xlink="http://www.w3.org/1999/xlink">
    <!-- Generator: Sketch 51.3 (57544) - http://www.bohemiancoding.com/sketch -->
    <title>saturn</title>
    <desc>Created with Sketch.</desc>
    <defs></defs>
    <g id="Welcome" stroke="none" stroke-width="1" fill="none" fill-rule="evenodd">
        <g id="Gen3styleguide" transform="translate(-567.000000, -4337.000000)" fill="#9B9B9B">
            <g id="Group-23" transform="translate(326.000000, 4325.000000)">
                <g id="saturn" transform="translate(241.000000, 12.000000)">
                    <g id="Shape">
                        <path d="M11.8725,1.53176608 C12.070875,0.95302924 12.0354609,0.523929825 11.7673359,0.25625731 C11.307375,-0.202783626 10.4945859,0.139134503 10.2274922,0.25148538 C9.69302344,0.476304094 9.04335937,0.861614035 8.29511719,1.39721637 C7.58791406,1.05768421 6.80770312,0.87819883 5.99971875,0.87819883 C4.58383594,0.87819883 3.25270312,1.42851462 2.25152344,2.42774269 C0.609679687,4.06643275 0.27234375,6.52140351 1.23909375,8.4957193 C0.0530625,10.1894035 -0.276445313,11.2613333 0.232148437,11.7689357 C0.3864375,11.922924 0.594234375,12 0.853359375,12 C1.04463281,12 1.26386719,11.9580117 1.51010156,11.8738947 C1.95328125,11.7225731 2.50057031,11.4344795 3.13680469,11.0175439 C3.23894531,10.9506199 3.34282031,10.880538 3.44798437,10.8080702 C4.22090625,11.2329591 5.09285156,11.4590643 5.99971875,11.4590643 C7.41560156,11.4590643 8.74673437,10.9087485 9.74791406,9.90952047 C11.4401953,8.2205614 11.7464766,5.66446784 10.6674844,3.66119298 C10.7901797,3.4888655 10.9060781,3.31995322 11.0144531,3.15525146 C11.4322031,2.52030409 11.7209062,1.97405848 11.8725,1.53176608 Z M0.787429687,11.2128187 C0.745453125,11.0790643 0.8424375,10.4958363 1.68067969,9.23595322 C1.8493125,9.47218713 2.03932031,9.69777778 2.2515,9.90954386 C2.40703125,10.0647719 2.57057813,10.2091462 2.74113281,10.3423392 C1.32616406,11.2761637 0.860554687,11.2294269 0.787429687,11.2128187 Z M3.41798437,9.87050292 C3.20114062,9.71918129 2.99596875,9.54788304 2.80495312,9.35723977 C1.04332031,7.59904094 1.04332031,4.73826901 2.80492969,2.98007018 C3.65828906,2.12839766 4.79292187,1.65932164 5.99974219,1.65932164 C7.2065625,1.65932164 8.34119531,2.12837427 9.19455469,2.98007018 C9.39522656,3.18035088 9.57274219,3.39504094 9.72771094,3.62065497 C8.96041406,4.6405614 7.96725,5.76905263 6.86149219,6.87265497 C5.68851563,8.04334503 4.48741406,9.08769591 3.41798437,9.87050292 Z M9.19455469,9.35726316 C8.34119531,10.2089357 7.20658594,10.6780117 5.99974219,10.6780117 C5.35617187,10.6780117 4.73315625,10.544538 4.16235937,10.2908772 C5.18894531,9.51368421 6.31134375,8.52638596 7.414875,7.42498246 C8.45123437,6.39064327 9.38671875,5.33976608 10.1417578,4.36701754 C10.8597422,6.01660819 10.5440391,8.01043275 9.19455469,9.35726316 Z M10.2600234,2.87695906 C10.2431484,2.90191813 10.2258281,2.92715789 10.2086016,2.95230409 C10.0684922,2.76994152 9.91509375,2.5945731 9.74796094,2.42776608 C9.52642969,2.20666667 9.28870312,2.00767251 9.03752344,1.83160234 C9.56235937,1.47225731 10.0357031,1.19408187 10.4232656,1.01859649 C10.9514531,0.779391813 11.1607031,0.800561404 11.2104844,0.811859649 C11.2278281,0.891345029 11.27025,1.38243275 10.2600234,2.87695906 Z" fill-rule="nonzero"></path>
                    </g>
                </g>
            </g>
        </g>
    </g>
</svg>

<svg width="12" height="12" xmlns="http://www.w3.org/2000/svg"><path d="M11.873 1.532c.198-.579.162-1.008-.106-1.276-.46-.459-1.272-.117-1.54-.005-.534.225-1.184.61-1.932 1.146A5.29 5.29 0 0 0 6 .878a5.292 5.292 0 0 0-4.76 7.618C.052 10.189-.277 11.26.231 11.769c.154.154.362.231.621.231.192 0 .41-.042.657-.126.443-.151.99-.44 1.627-.856.102-.067.206-.137.311-.21A5.28 5.28 0 0 0 6 11.46a5.292 5.292 0 0 0 4.668-7.798c.122-.172.238-.341.346-.506.418-.635.707-1.18.859-1.623ZM.787 11.212c-.042-.133.055-.716.894-1.976a5.308 5.308 0 0 0 1.06 1.106c-1.415.934-1.88.887-1.954.87Zm2.631-1.341A4.508 4.508 0 0 1 6 1.66a4.52 4.52 0 0 1 3.728 1.96C8.96 4.64 7.968 5.769 6.86 6.873 5.69 8.043 4.487 9.088 3.418 9.87Zm5.777-.514A4.493 4.493 0 0 1 6 10.678a4.514 4.514 0 0 1-1.838-.387c1.027-.777 2.15-1.765 3.253-2.866a33.087 33.087 0 0 0 2.727-3.058 4.51 4.51 0 0 1-.947 4.99Zm1.065-6.48-.051.075a5.32 5.32 0 0 0-1.171-1.12c.524-.36.998-.638 1.385-.813.528-.24.738-.218.787-.207.018.08.06.57-.95 2.065Z" fill="#9B9B9B"/></svg>
